X:1
T:Standin’ in the Need of Prayer
T:Standin’ in the Need of Prayer
T:Afircan-American Spiritual
T:Public Domain Courtesy of the Cyber Hymnal™
C:Afircan-American Spiritual
Z:Public Domain
Z:Courtesy of the Cyber Hymnal™
%%score ( 1 2 ) 3
L:1/8
Q:1/4=110
M:4/4
K:G
V:1 treble 
V:2 treble 
V:3 bass 
V:1
 B^A | BdB^A BdBA | B A3 G4 | [DG][DG][DG][DG] [FA] [FA]3 | [GB]6 B^A | BdB^A BdBA | B A3 G4 | %7
w: 1.~Not my|bro- ther, nor my sis- ter, but it’s|me, O Lord,|Stand- in’ in the need of|prayer; Not my|bro- ther, nor my sis- ter, but it’s|me, O Lord,|
w: 2.~Not the|preach- er, nor the dea- con, but it’s|me, O Lord,|Stand- in’ in the need of|prayer; Not the|preach- er, nor the dea- con, but it’s|me, O Lord,|
w: 3.~Not my|fa- ther, nor my mo- ther, but it’s|me, O Lord,|Stand- in’ in the need of|prayer; Not my|fa- ther, nor my mo- ther, but it’s|me, O Lord,|
w: 4.~Not the|strang- er, nor my neigh- bor, but it’s|me, O Lord,|Stand- in’ in the need of|prayer; Not the|strang- er, nor my neigh- bor, but it’s|me, O Lord,|
 [DG][DG][DG][DG] [GB] [FA]3 | [DG]6 ||"^Refrain" B2 | (z2 [GB]2) x6 | [GB] [FA]3 [DG]4 | %12
w: Stand- in’ in the need of|prayer.||||
w: Stand- in’ in the need of|prayer.|It’s||me, it’s me,|
w: Stand- in’ in the need of|prayer.||||
w: Stand- in’ in the need of|prayer.||||
 [DG][DG][DG][DG] [FA] [FA]3 | [GB]6 | B2 | (z2 [GB]2) x6 | [GB] [FA]3 [DG]4 | %17
w: |||||
w: O Lord, Stand- in’ in the|need|of||prayer; It’s me,|
w: |||||
w: |||||
 [DG][DG][DG][DG] [GB] [FA]3 | [DG]6 |] %19
w: ||
w: it’s me, O Lord, Stand- in’|in|
w: ||
w: ||
V:2
 x2 | x8 | x8 | x8 | x8 | x8 | x8 | x8 | x6 || x2 | (B6 G2 G2) | x8 | x8 | x6 | x2 | (B6 G2 G2) | %16
 x8 | x8 | x6 |] %19
V:3
 z2 | z8 | z8 | [G,B,][G,B,][G,B,][G,B,] [D,D] [D,D]3 | [G,D]6 z2 | z8 | z8 | %7
w: |||~ ~ ~ ~ ~ ~|~|||
 [G,B,][G,B,][G,B,][G,B,] [D,D] [D,C]3 | [G,,G,B,]6 || z2 | z2 [G,D]2 [G,D]2 [G,D]2 x2 | %11
w: ~ ~ ~ ~ ~ ~|~||It’s me ~|
 [D,D] [D,C]3 [G,B,]4 | [G,B,][G,B,][G,B,][G,B,] [D,D] [D,D]3 | [G,D]6 | z2 | %15
w: ~ ~ ~|~ ~ ~ ~ ~ ~|~||
 z2 [G,D]2 [G,D]2 [G,D]2 x2 | [D,D] [D,C]3 [G,B,]4 | [D,B,][D,B,][D,B,][D,B,] [D,D] [D,C]3 | %18
w: It’s me *|||
 [G,,G,B,]6 |] %19
w: |

